svg/700/outlined/workspaces-fill.svg

<svg xmlns="http://www.w3.org/2000/svg" width="48" height="48" viewBox="0 -960 960 960"><path d="M218.5-95Q145-95 94-146T43-270q0-73 51-124.5T218.5-446q73.5 0 124.5 51.5T394-270q0 73-51 124T218.5-95Zm524 0q-73.5 0-124-51T568-270q0-73 50.5-124.5t124-51.5q73.5 0 124.5 51.5T918-270q0 73-51 124T742.5-95ZM481-539q-73 0-124-51t-51-124.5q0-73.5 51-124T481-889q73 0 124.5 50.5t51.5 124q0 73.5-51.5 124.5T481-539Z"/></svg>

<svg xmlns="http://www.w3.org/2000/svg" width="48" height="48" viewBox="0 -960 960 960"><path d="M94-146q-51-51-51-124t51-124.5Q145-446 218.5-446T343-394.5Q394-343 394-270t-51 124q-51 51-124.5 51T94-146Zm524.5 0Q568-197 568-270t50.5-124.5Q669-446 742.5-446T867-394.5Q918-343 918-270t-51 124q-51 51-124.5 51t-124-51ZM357-590q-51-51-51-124.5t51-124Q408-889 481-889t124.5 50.5Q657-788 657-714.5T605.5-590Q554-539 481-539t-124-51Z"/></svg>
